X: 19
T: 19. Monfrina
M: 6/8
L: 1/8
Q: 3/8=120
K: A
{B/}A>GA | c2 A {B/}A>GA |  c2 A A>GA | B2 B e2 e |  c2 A {B/}A>GA |  c2 A {B/}A>GA |  c2 A {B/}A>GA |  B2 B e2 e | A3 :|!
|: AGA | B>cB e2 e | c2 A {B/}A>GA | BcB e2 e | c3 A3 | f2 d {e/}dcB | e2 c {d}c>BA | Bdc {c/}BAG | A3 :|!

